dist/img/header/icons/Instagram.svg

<svg width="69" height="69" viewBox="0 0 69 69" fill="none" xmlns="http://www.w3.org/2000/svg">
<path d="M34.4995 0C15.4266 0 0 15.4268 0 34.5C0 53.5732 15.4266 69 34.4995 69C53.5724 69 68.9991 53.5732 68.9991 34.5C69.1393 15.4268 53.5724 0 34.4995 0ZM52.8712 42.6341C52.8712 45.8598 51.7493 48.6646 49.7859 50.628C47.8225 52.5915 45.0177 53.5732 41.9324 53.5732H26.646C23.5607 53.5732 20.7558 52.5915 18.7924 50.628C16.6888 48.6646 15.7071 45.8598 15.7071 42.6341V27.2073C15.7071 20.7561 20.0546 16.2683 26.646 16.2683H42.0726C45.2982 16.2683 47.9628 17.3902 49.9261 19.3537C51.8895 21.3171 52.8712 23.9817 52.8712 27.2073V42.6341Z" fill="#876191"/>
<path d="M34.219 40.9508C37.6269 40.9508 40.3896 38.1881 40.3896 34.7801C40.3896 31.3721 37.6269 28.6094 34.219 28.6094C30.811 28.6094 28.0483 31.3721 28.0483 34.7801C28.0483 38.1881 30.811 40.9508 34.219 40.9508Z" fill="#876191"/>
<path d="M41.9323 19.6342H26.5057C24.2618 19.6342 22.2984 20.3354 21.0363 21.5976C19.7741 22.8598 19.0729 24.8232 19.0729 27.0671V42.4939C19.0729 44.7378 19.7741 46.7012 21.1765 48.1037C22.5789 49.3659 24.4021 50.0671 26.6459 50.0671H41.9323C44.1762 50.0671 46.1396 49.3659 47.4018 48.1037C48.8042 46.8415 49.5054 44.8781 49.5054 42.6342V27.2073C49.5054 24.9634 48.8042 23.1403 47.542 21.7378C46.1396 20.3354 44.3164 19.6342 41.9323 19.6342ZM34.219 44.3171C28.8898 44.3171 24.6826 39.9695 24.6826 34.7805C24.6826 29.4512 29.0301 25.2439 34.219 25.2439C39.408 25.2439 43.8957 29.4512 43.8957 34.7805C43.8957 40.1098 39.5482 44.3171 34.219 44.3171ZM44.1762 27.0671C42.914 27.0671 41.9323 26.0854 41.9323 24.8232C41.9323 23.561 42.914 22.5793 44.1762 22.5793C45.4384 22.5793 46.4201 23.561 46.4201 24.8232C46.4201 26.0854 45.4384 27.0671 44.1762 27.0671Z" fill="#876191"/>
</svg>

<svg width="69" height="69" fill="none" xmlns="http://www.w3.org/2000/svg"><path d="M34.5 0C15.426 0 0 15.427 0 34.5S15.427 69 34.5 69C53.572 69 69 53.573 69 34.5 69.14 15.427 53.571 0 34.5 0Zm18.37 42.634c0 3.226-1.122 6.03-3.085 7.994-1.964 1.964-4.768 2.945-7.854 2.945H26.646c-3.085 0-5.89-.981-7.854-2.945-2.103-1.963-3.085-4.768-3.085-7.994V27.207c0-6.45 4.348-10.939 10.939-10.939h15.427c3.225 0 5.89 1.122 7.853 3.086 1.963 1.963 2.945 4.628 2.945 7.853v15.427Z" fill="#876191"/><path d="M34.219 40.95a6.17 6.17 0 1 0 0-12.34 6.17 6.17 0 0 0 0 12.34Z" fill="#876191"/><path d="M41.932 19.634H26.506c-2.244 0-4.208.701-5.47 1.964-1.262 1.262-1.963 3.225-1.963 5.47v15.426c0 2.244.701 4.207 2.104 5.61 1.402 1.262 3.225 1.963 5.469 1.963h15.286c2.244 0 4.208-.701 5.47-1.963 1.402-1.262 2.103-3.226 2.103-5.47V27.207c0-2.244-.7-4.067-1.963-5.47-1.402-1.402-3.226-2.103-5.61-2.103ZM34.22 44.317c-5.33 0-9.536-4.348-9.536-9.536 0-5.33 4.347-9.537 9.536-9.537 5.189 0 9.677 4.207 9.677 9.537 0 5.329-4.348 9.536-9.677 9.536Zm9.957-17.25a2.215 2.215 0 0 1-2.244-2.244c0-1.262.982-2.244 2.244-2.244 1.262 0 2.244.982 2.244 2.244a2.215 2.215 0 0 1-2.244 2.244Z" fill="#876191"/></svg>
